X:336
T: WENN DER SCHAEFER SCHEREN WILL
N: E1488
O: Europa, Mitteleuropa, Deutschland, Halberstadt
R: Staende - Lied, Hirten -,  Schaefer - Lied
M: 4/4
L: 1/8
K: G
 | GABcd2d2 | e2e2d2z2 |
c2ccB2BB | A4G2z2 |
GABcd2d2 | e2e2d2z2 |
c2ccB2BB | A4G2
G2 | B3BB2c2 | B4A2
G2 | B3BB2c2 | B4A2z2 |
GABcd2d2 | e2e2d2z2 |
c2ccB2BB | A4G2z2

@@@ Tune index: 5020
